cmd/conneroh/_static/dist/svg/wheat.svg

<svg height="18" viewBox="0 0 18 18" width="18" xmlns="http://www.w3.org/2000/svg"><g fill="none" stroke="#fff" stroke-linecap="round" stroke-linejoin="round" stroke-width="2" transform="scale(.75)"><path d="m2 22 14-14m-12.53125 4.53125 1.53125-1.53125 1.53125 1.53125c1.359375 1.364583 1.359375 3.572917 0 4.9375l-1.53125 1.53125-1.53125-1.53125c-1.359375-1.364583-1.359375-3.572917 0-4.9375m4-4 1.53125-1.53125 1.53125 1.53125c1.359375 1.364583 1.359375 3.572917 0 4.9375l-1.53125 1.53125-1.53125-1.53125c-1.359375-1.364583-1.359375-3.572917 0-4.9375m4-4 1.53125-1.53125 1.53125 1.53125c1.359375 1.364583 1.359375 3.572917 0 4.9375l-1.53125 1.53125-1.53125-1.53125c-1.359375-1.364583-1.359375-3.572917 0-4.9375m8.53125-2.53125h2v2c0 2.208333-1.791667 4-4 4h-2v-2c0-2.208333 1.791667-4 4-4"/><path d="m11.46875 17.46875 1.53125 1.53125-1.53125 1.53125c-1.364583 1.359375-3.572917 1.359375-4.9375 0l-1.53125-1.53125 1.53125-1.53125c1.364583-1.359375 3.572917-1.359375 4.9375 0m4-4 1.53125 1.53125-1.53125 1.53125c-1.364583 1.359375-3.572917 1.359375-4.9375 0l-1.53125-1.53125 1.53125-1.53125c1.364583-1.359375 3.572917-1.359375 4.9375 0m4-4 1.53125 1.53125-1.53125 1.53125c-1.364583 1.359375-3.572917 1.359375-4.9375 0l-1.53125-1.53125 1.53125-1.53125c1.364583-1.359375 3.572917-1.359375 4.9375 0"/></g></svg>

<svg xmlns="http://www.w3.org/2000/svg" width="24" height="24" fill="none" stroke="white" stroke-linecap="round" stroke-linejoin="round" stroke-width="2">
    <path d="M2 22 16 8M3.47 12.53 5 11l1.53 1.53a3.5 3.5 0 0 1 0 4.94L5 19l-1.53-1.53a3.5 3.5 0 0 1 0-4.94m4-4L9 7l1.53 1.53a3.5 3.5 0 0 1 0 4.94L9 15l-1.53-1.53a3.5 3.5 0 0 1 0-4.94m4-4L13 3l1.53 1.53a3.5 3.5 0 0 1 0 4.94L13 11l-1.53-1.53a3.5 3.5 0 0 1 0-4.94M20 2h2v2a4 4 0 0 1-4 4h-2V6a4 4 0 0 1 4-4"/>
    <path d="M11.47 17.47 13 19l-1.53 1.53a3.5 3.5 0 0 1-4.94 0L5 19l1.53-1.53a3.5 3.5 0 0 1 4.94 0m4-4L17 15l-1.53 1.53a3.5 3.5 0 0 1-4.94 0L9 15l1.53-1.53a3.5 3.5 0 0 1 4.94 0m4-4L21 11l-1.53 1.53a3.5 3.5 0 0 1-4.94 0L13 11l1.53-1.53a3.5 3.5 0 0 1 4.94 0"/>
</svg>
